docs/images/icons/telegram.svg

<svg width="36.515" height="38.037" fill="none" xmlns="http://www.w3.org/2000/svg"><defs><clipPath id="a"><path fill="#fff" fill-opacity="0" d="M0 0h36.515v38.037H0z"/></clipPath></defs><path d="M0 0h36.515v38.037H0z"/><g clip-path="url(#a)"><path d="M32.39 4.61C27.9 6.55 8.64 14.86 3.31 17.13c-3.57 1.45-1.48 2.81-1.48 2.81s3.05 1.09 5.66 1.91c2.61.81 4.01-.09 4.01-.09l12.27-8.62c4.36-3.08 3.31-.55 2.27.54-2.27 2.36-6.01 6.08-9.15 9.07-1.39 1.27-.69 2.36-.08 2.91 2.26 1.99 8.44 6.07 8.79 6.34 1.84 1.36 5.46 3.31 6.01-.81l2.18-14.24c.69-4.81 1.39-9.25 1.48-10.52.26-3.09-2.88-1.82-2.88-1.82Z" fill="#1B92D1"/></g></svg>

<svg width="36.515137" height="38.036865" viewBox="0 0 36.5151 38.0369" fill="none" xmlns="http://www.w3.org/2000/svg" xmlns:xlink="http://www.w3.org/1999/xlink">
	<desc>
			Created with Pixso.
	</desc>
	<defs>
		<clipPath id="clip339_463">
			<rect id="telegram-communication-chat-interaction-network-connection-svgrepo-com 1" width="36.515362" height="38.036835" fill="white" fill-opacity="0"/>
		</clipPath>
	</defs>
	<rect id="telegram-communication-chat-interaction-network-connection-svgrepo-com 1" width="36.515362" height="38.036835" fill="#FFFFFF" fill-opacity="0"/>
	<g clip-path="url(#clip339_463)">
		<path id="Vector" d="M32.39 4.61C27.9 6.55 8.64 14.86 3.31 17.13C-0.26 18.58 1.83 19.94 1.83 19.94C1.83 19.94 4.88 21.03 7.49 21.85C10.1 22.66 11.5 21.76 11.5 21.76L23.77 13.14C28.13 10.06 27.08 12.59 26.04 13.68C23.77 16.04 20.03 19.76 16.89 22.75C15.5 24.02 16.2 25.11 16.81 25.66C19.07 27.65 25.25 31.73 25.6 32C27.44 33.36 31.06 35.31 31.61 31.19L33.79 16.95C34.48 12.14 35.18 7.7 35.27 6.43C35.53 3.34 32.39 4.61 32.39 4.61Z" fill="#1B92D1" fill-opacity="1.000000" fill-rule="nonzero"/>
	</g>
</svg>
